X: 1
T:Jamie Allen
M:4/4
L:1/4
K:G
G/2A/2|"G"BG GA|B2 GA/2B/2|"Am"cA AB|"D7"cd/c/ BA|
"G"Gg "C"ge|"Bm"d2 "Em"B3/2c/2|"Am"dd "D7"c/2B/2A|1"G"G3G/A/:|2"G"G3B/A/||
|: "G"Gg g3/2f/2|"Em"ed cB|"Am"Aa "A7"a3/2g/2|"D7"fd ef|
"C"g3/2a/2 ge|"Bm"d2 "Em"B3/2c/2|"Am"dd "D7"c/2B/2A|1"G"G2BA:|2"G"G3z|]
